material/.icons/material/youtube-studio.svg

<svg xmlns="http://www.w3.org/2000/svg" viewBox="0 0 24 24"><path d="M10 15l5-3-5-3v6m9.45-2l2.11 1.63c.22.15.25.37.1.65l-2.02 3.47c-.14.22-.33.28-.61.19l-2.48-.99c-.66.47-1.22.8-1.69.99l-.36 2.62c-.08.28-.23.44-.5.44h-4c-.27 0-.42-.16-.5-.44l-.36-2.62c-.59-.25-1.14-.58-1.69-.99l-2.48.99c-.28.09-.47.03-.61-.19l-2.02-3.47c-.15-.28-.12-.5.1-.65L4.55 13c-.05-.23-.05-.56-.05-1 0-.44 0-.77.05-1L2.44 9.38c-.22-.16-.25-.38-.1-.66l2.02-3.47c.14-.22.33-.28.61-.19l2.48.99c.66-.47 1.22-.8 1.69-.99l.36-2.62c.08-.28.23-.44.5-.44h4c.27 0 .42.16.5.44l.36 2.62c.59.25 1.14.58 1.69.99l2.48-.99c.28-.09.47-.03.61.19l2.02 3.47c.15.28.12.5-.1.66L19.45 11c.05.23.05.56.05 1 0 .44 0 .77-.05 1z"/></svg>

<?xml version="1.0" encoding="UTF-8"?><!DOCTYPE svg PUBLIC "-//W3C//DTD SVG 1.1//EN" "http://www.w3.org/Graphics/SVG/1.1/DTD/svg11.dtd"><svg xmlns="http://www.w3.org/2000/svg" xmlns:xlink="http://www.w3.org/1999/xlink" version="1.1" id="mdi-youtube-studio" width="24" height="24" viewBox="0 0 24 24"><path d="M10,15L15,12L10,9V15M19.45,13L21.56,14.63C21.78,14.78 21.81,15 21.66,15.28L19.64,18.75C19.5,18.97 19.31,19.03 19.03,18.94L16.55,17.95C15.89,18.42 15.33,18.75 14.86,18.94L14.5,21.56C14.42,21.84 14.27,22 14,22H10C9.73,22 9.58,21.84 9.5,21.56L9.14,18.94C8.55,18.69 8,18.36 7.45,17.95L4.97,18.94C4.69,19.03 4.5,18.97 4.36,18.75L2.34,15.28C2.19,15 2.22,14.78 2.44,14.63L4.55,13C4.5,12.77 4.5,12.44 4.5,12C4.5,11.56 4.5,11.23 4.55,11L2.44,9.38C2.22,9.22 2.19,9 2.34,8.72L4.36,5.25C4.5,5.03 4.69,4.97 4.97,5.06L7.45,6.05C8.11,5.58 8.67,5.25 9.14,5.06L9.5,2.44C9.58,2.16 9.73,2 10,2H14C14.27,2 14.42,2.16 14.5,2.44L14.86,5.06C15.45,5.31 16,5.64 16.55,6.05L19.03,5.06C19.31,4.97 19.5,5.03 19.64,5.25L21.66,8.72C21.81,9 21.78,9.22 21.56,9.38L19.45,11C19.5,11.23 19.5,11.56 19.5,12C19.5,12.44 19.5,12.77 19.45,13Z" /></svg>
